modules/hawcons-stroke/icons/icon-40-checkered-flag.svg

<?xml version="1.0" encoding="UTF-8" standalone="no"?>
<svg width="32px" height="32px" viewBox="0 0 32 32" version="1.1" xmlns="http://www.w3.org/2000/svg" xmlns:xlink="http://www.w3.org/1999/xlink" xmlns:sketch="http://www.bohemiancoding.com/sketch/ns">
    <!-- Generator: Sketch 3.0.3 (7891) - http://www.bohemiancoding.com/sketch -->
    <title>icon 40 checkered flag</title>
    <desc>Created with Sketch.</desc>
    <defs></defs>
    <g id="Page-1" stroke="none" stroke-width="1" fill="none" fill-rule="evenodd" sketch:type="MSPage">
        <g id="icon-40-checkered-flag" sketch:type="MSArtboardGroup" fill="#929292">
            <path d="M24.0175781,17.4166535 C24.0175781,17.4166535 22.2113164,18.3316275 19.4083722,17.8767081 C19.2142856,17.8452078 18.9344208,17.7799433 19,17.793349 L19,13.797991 C18.1952748,13.6533697 17.3302513,13.4030494 16.4337934,12.9993592 C15.5656631,12.6084254 14.7499845,12.3553568 14,12.2008957 L14,16.1791279 C14.1037835,16.19763 13.865648,16.1742092 13.6363055,16.1416815 C11.0347515,15.7727031 9,16.4315453 9,16.4315453 L9,12.4116425 C9.00012966,12.4116002 11.2275178,11.6848603 14,12.1791279 L14,8.20089571 C10.9605781,7.57491953 9.00011038,8.56846668 9,8.56852262 L9,4.59389917 C9,4.59389917 10.9602707,3.60799641 14,4.22746321 L14,8.17912786 C14.8013354,8.3219869 15.6482077,8.56684813 16.5,8.96073994 C17.3911825,9.37284683 18.2296197,9.63586744 19,9.79334903 L19,5.8132889 C21.8978104,6.33337039 24.0175781,5.49392359 24.0175781,5.49392359 L24.0175781,9.53342032 C24.0063347,9.49537606 24,9.47442844 24,9.47442844 C23.9998781,9.47447709 21.8883365,10.3170686 19,9.79799098 L19,13.793349 C19.709621,13.9384102 20.3614969,13.9939234 20.9436608,13.9939236 C22.8426776,13.9939242 23.9999143,13.4032319 24,13.4031882 L24.0175781,17.4166535 L24.0175781,17.4166535 Z M8,28.9939236 L9,28.9939236 L9,17.5387624 C10.377296,17.0432589 13.0805236,16.5047312 16.5,17.9939238 C21.522644,20.1813011 25,17.9939236 25,17.9939236 L25,3.99392359 C25,3.99392359 21.5237426,6.23025181 16.5,3.9939236 C11.4762573,1.75759551 8,3.99392359 8,3.99392359 L8,11.9939236 L8,28.9939236 L8,28.9939236 Z" id="checkered-flag" sketch:type="MSShapeGroup"></path>
        </g>
    </g>
</svg>

<svg width="32" height="32" xmlns="http://www.w3.org/2000/svg"><path d="M24.018 17.417s-1.807.915-4.61.46c-.194-.032-.474-.097-.408-.084v-3.995a10.957 10.957 0 0 1-2.566-.799A11.642 11.642 0 0 0 14 12.201v3.978c.104.019-.134-.005-.364-.037-2.601-.37-4.636.29-4.636.29v-4.02s2.228-.727 5-.233V8.201c-3.04-.626-5 .367-5 .368V4.594s1.96-.986 5-.367V8.18c.801.143 1.648.388 2.5.782.891.412 1.73.675 2.5.832v-3.98c2.898.52 5.018-.32 5.018-.32v4.04L24 9.474s-2.112.843-5 .324v3.995c.71.145 1.361.2 1.944.2 1.899 0 3.056-.59 3.056-.59l.018 4.014zM8 28.994h1V17.539c1.377-.496 4.08-1.034 7.5.455 5.023 2.187 8.5 0 8.5 0v-14s-3.476 2.236-8.5 0-8.5 0-8.5 0v25z" fill="#929292" fill-rule="evenodd"/></svg>
